icons/folder-add.svg

<svg xmlns="http://www.w3.org/2000/svg" viewBox="0 0 24 24" fill="currentColor">
  <path d="M3.75 4.2c0-.28578.16422-.45.45001-.45H12.3c.7315 0 1.446.45007 1.7147 1.0546l.0093.02101.7407 1.42439H3.75V4.2Zm-1.5 2.05V4.2c0-1.11422.83581-1.95 1.95001-1.95H12.3c1.2605 0 2.5379.74053 3.0753 1.9229l1.08 2.0771H17c2.6142 0 4.75 2.13579 4.75 4.75v6c0 .4142-.3358.75-.75.75s-.75-.3358-.75-.75v-6c0-1.78579-1.4642-3.25-3.25-3.25H3.75V17c0 1.7858 1.46421 3.25 3.25 3.25.41421 0 .75.3358.75.75s-.33579.75-.75.75c-2.61421 0-4.75-2.1358-4.75-4.75V6.25Zm11.75 8c.4142 0 .75.3358.75.75v2.25H17c.4142 0 .75.3358.75.75s-.3358.75-.75.75h-2.25V21c0 .4142-.3358.75-.75.75s-.75-.3358-.75-.75v-2.25H11c-.4142 0-.75-.3358-.75-.75s.3358-.75.75-.75h2.25V15c0-.4142.3358-.75.75-.75Z"/>
</svg>

<svg width="24" height="24" viewBox="0 0 24 24" fill="none" xmlns="http://www.w3.org/2000/svg">
<path fill-rule="evenodd" clip-rule="evenodd" d="M3.75 4.2C3.75 3.91422 3.91422 3.75 4.20001 3.75H12.3C13.0315 3.75 13.746 4.20007 14.0147 4.8046L14.024 4.82561L14.7647 6.25H3.75V4.2ZM2.25 6.25V4.2C2.25 3.08578 3.08581 2.25 4.20001 2.25H12.3C13.5605 2.25 14.8379 2.99053 15.3753 4.1729L16.4553 6.25H17C19.6142 6.25 21.75 8.38579 21.75 11V17C21.75 17.4142 21.4142 17.75 21 17.75C20.5858 17.75 20.25 17.4142 20.25 17V11C20.25 9.21421 18.7858 7.75 17 7.75H3.75V17C3.75 18.7858 5.21421 20.25 7 20.25C7.41421 20.25 7.75 20.5858 7.75 21C7.75 21.4142 7.41421 21.75 7 21.75C4.38579 21.75 2.25 19.6142 2.25 17V7.75V6.25ZM14 14.25C14.4142 14.25 14.75 14.5858 14.75 15V17.25H17C17.4142 17.25 17.75 17.5858 17.75 18C17.75 18.4142 17.4142 18.75 17 18.75H14.75V21C14.75 21.4142 14.4142 21.75 14 21.75C13.5858 21.75 13.25 21.4142 13.25 21V18.75H11C10.5858 18.75 10.25 18.4142 10.25 18C10.25 17.5858 10.5858 17.25 11 17.25H13.25V15C13.25 14.5858 13.5858 14.25 14 14.25Z" fill="black"/>
</svg>
